svgs/sharp-solid/diagram-nested.svg

<svg xmlns="http://www.w3.org/2000/svg" viewBox="0 0 448 512"><!--! Font Awesome Pro 6.6.0 by @fontawesome - https://fontawesome.com License - https://fontawesome.com/license (Commercial License) Copyright 2024 Fonticons, Inc. --><path d="M0 32l192 0 0 192-64 0 0 128 128 0 0-64 192 0 0 192-192 0 0-64L96 416l-32 0 0-32 0-160L0 224 0 32z"/></svg>

<svg xmlns="http://www.w3.org/2000/svg" viewBox="0 0 448 512"><!--! Font Awesome Pro 6.4.2 by @fontawesome - https://fontawesome.com License - https://fontawesome.com/license (Commercial License) Copyright 2023 Fonticons, Inc. --><path d="M0 32H192V224H128V352H256V288H448V480H256V416H96 64V384 224H0V32z"/></svg>
